X:160
T: ES WAR EINMAL EINE KOENIGIN
N: E0084F
O: Europa, Mitteleuropa, Deutschland; Frankreich, Elsass, Bischweiler
R: erzaehlendes Volks - Lied, Sage, Liebe, Leid, Tod
M: 4/4
L: 1/8
K: G
D2 | B3AG2F2 | A2E2z2
A2 | A3AAGA2 | B4z2
D2 | B3Bd3d | c2A2z2
A2 | G3GB2A2 | G4z2

@@@ Tune index: 3810
